svgs/regular/megaphone.svg

<svg xmlns="http://www.w3.org/2000/svg" viewBox="0 0 576 512"><!-- Font Awesome Pro 6.0.0-alpha2 by @fontawesome - https://fontawesome.com License - https://fontawesome.com/license (Commercial License) --><path d="M552 32C538.744 32 528 42.744 528 56V59.562L46.961 194.855C44.543 184.158 35.43 176 24 176C10.746 176 0 186.744 0 200V312C0 325.254 10.746 336 24 336C35.43 336 44.543 327.844 46.961 317.145L167.891 351.156C162.854 362.654 160 375.125 160 388C160 438.734 201.266 480 252 480C298.51 480 336.654 445.199 342.752 400.336L528 452.438V456C528 469.254 538.744 480 552 480C565.254 480 576 469.254 576 456V56C576 42.744 565.254 32 552 32ZM296 388C296 412.266 276.266 432 252 432S208 412.266 208 388C208 379.514 210.648 371.441 215.119 364.439L295.873 387.152C295.879 387.441 296 387.711 296 388ZM48 267.562V244.438L528 109.438V402.562L48 267.562Z"/></svg>

<svg xmlns="http://www.w3.org/2000/svg" viewBox="0 0 576 512"><!--! Font Awesome Pro 6.0.0-alpha3 by @fontawesome - https://fontawesome.com License - https://fontawesome.com/license (Commercial License) --><path d="M552 32c-13.26 0-24 10.74-24 24v3.562L46.96 194.9C44.54 184.2 35.43 176 24 176C10.75 176 0 186.7 0 200v112c0 13.25 10.75 24 24 24c11.43 0 20.54-8.156 22.96-18.86l120.9 34.01C162.9 362.7 160 375.1 160 388C160 438.7 201.3 480 252 480c46.51 0 84.65-34.8 90.75-79.66L528 452.4V456c0 13.25 10.74 24 24 24c13.25 0 24-10.75 24-24V56C576 42.74 565.3 32 552 32zM296 388c0 24.27-19.73 44-44 44S208 412.3 208 388c0-8.486 2.648-16.56 7.119-23.56l80.75 22.71C295.9 387.4 296 387.7 296 388zM48 267.6V244.4l480-135v293.1L48 267.6z"/></svg>
